swiss/communes/0422.svg

<?xml version="1.0" encoding="UTF-8" standalone="no"?>
<svg
   xmlns:dc="http://purl.org/dc/elements/1.1/"
   xmlns:cc="http://web.resource.org/cc/"
   xmlns:rdf="http://www.w3.org/1999/02/22-rdf-syntax-ns#"
   xmlns:svg="http://www.w3.org/2000/svg"
   xmlns="http://www.w3.org/2000/svg"
   xmlns:xlink="http://www.w3.org/1999/xlink"
   xmlns:sodipodi="http://sodipodi.sourceforge.net/DTD/sodipodi-0.dtd"
   xmlns:inkscape="http://www.inkscape.org/namespaces/inkscape"
   height="763"
   width="603"
   version="1.0"
   id="svg20"
   sodipodi:version="0.32"
   inkscape:version="0.44.1"
   sodipodi:docname="Rüti bei Lyssach-coat of arms.svg"
   sodipodi:docbase="F:\Mis Documentos\Mis imágenes\Encyclopédie\Escudos de Suiza">
  <metadata
     id="metadata31">
    <rdf:RDF>
      <cc:Work
         rdf:about="">
        <dc:format>image/svg+xml</dc:format>
        <dc:type
           rdf:resource="http://purl.org/dc/dcmitype/StillImage" />
        <dc:date>07-AUG-2006</dc:date>
        <dc:creator>
          <cc:Agent>
            <dc:title>Jérôme BLUM (wagner51)</dc:title>
          </cc:Agent>
        </dc:creator>
        <cc:license
           rdf:resource="http://creativecommons.org/licenses/GPL/2.0/" />
        <dc:coverage />
        <dc:description>Gabarit pour le Projet:Blasons de WIkipédia</dc:description>
        <dc:subject>
          <rdf:Bag>
            <rdf:li>blason suisse modèle gabarit projet blasons</rdf:li>
          </rdf:Bag>
        </dc:subject>
        <dc:language>fr</dc:language>
        <dc:title>Gabrit d'un blason suisse</dc:title>
      </cc:Work>
      <cc:License
         rdf:about="http://creativecommons.org/licenses/GPL/2.0/">
        <cc:permits
           rdf:resource="http://web.resource.org/cc/Reproduction" />
        <cc:permits
           rdf:resource="http://web.resource.org/cc/Distribution" />
        <cc:requires
           rdf:resource="http://web.resource.org/cc/Notice" />
        <cc:permits
           rdf:resource="http://web.resource.org/cc/DerivativeWorks" />
        <cc:requires
           rdf:resource="http://web.resource.org/cc/ShareAlike" />
        <cc:requires
           rdf:resource="http://web.resource.org/cc/SourceCode" />
      </cc:License>
    </rdf:RDF>
  </metadata>
  <defs
     id="defs29">
    <linearGradient
       id="linearGradient2893">
      <stop
         style="stop-color:#ffffff;stop-opacity:0.3137255;"
         offset="0"
         id="stop2895" />
      <stop
         id="stop2897"
         offset="0.19"
         style="stop-color:#ffffff;stop-opacity:0.25098041;" />
      <stop
         style="stop-color:#6b6b6b;stop-opacity:0.1254902;"
         offset="0.60000002"
         id="stop2901" />
      <stop
         style="stop-color:#000000;stop-opacity:0.1254902;"
         offset="1"
         id="stop2899" />
    </linearGradient>
    <linearGradient
       id="linearGradient2955">
      <stop
         style="stop-color:white;stop-opacity:0;"
         offset="0"
         id="stop2965" />
      <stop
         style="stop-color:black;stop-opacity:0.64583331;"
         offset="1"
         id="stop2959" />
    </linearGradient>
    <radialGradient
       inkscape:collect="always"
       xlink:href="#linearGradient2893"
       id="radialGradient3236"
       gradientUnits="userSpaceOnUse"
       gradientTransform="matrix(1.215027,1.531577e-24,1.464684e-23,1.266667,-839.1924,-490.4894)"
       cx="858.04236"
       cy="579.93323"
       fx="858.04236"
       fy="579.93323"
       r="300" />
  </defs>
  <sodipodi:namedview
     inkscape:window-height="682"
     inkscape:window-width="1024"
     inkscape:pageshadow="2"
     inkscape:pageopacity="0.0"
     guidetolerance="10.0"
     gridtolerance="10.0"
     objecttolerance="10.0"
     borderopacity="1.0"
     bordercolor="#666666"
     pagecolor="#ffffff"
     id="base"
     inkscape:zoom="0.49498097"
     inkscape:cx="660.91087"
     inkscape:cy="321.45113"
     inkscape:window-x="-4"
     inkscape:window-y="-4"
     inkscape:current-layer="layer2"
     showgrid="true"
     showguides="true"
     inkscape:guide-bbox="true" />
  <desc
     id="desc22">Coat of Arms of Canton of Freiburg (Fribourg)</desc>
  <g
     inkscape:groupmode="layer"
     id="layer1"
     inkscape:label="Fond écu"
     sodipodi:insensitive="true">
    <path
       id="path1899"
       d="M 1.5,1.49998 L 1.5,460.3679 C 1.5,626.6785 135.81456,761.5 301.49999,761.5 C 467.18543,761.5 601.5,626.6785 601.5,460.3679 L 601.5,1.49998 L 1.5,1.49998 z "
       style="fill:white;fill-opacity:1" />
    <path
       style="opacity:1;fill:black;fill-opacity:1;fill-rule:nonzero;stroke:black;stroke-width:2.60340929;stroke-miterlimit:4;stroke-dasharray:none;stroke-opacity:1"
       d="M 1.5,1.5 L 1.5,460.375 C 1.5,626.68559 135.81461,761.5 301.5,761.5 C 301.56262,761.5 301.62489,761.50004 301.6875,761.5 L 301.6875,1.5 L 1.5,1.5 z "
       id="rect40537" />
  </g>
  <g
     inkscape:groupmode="layer"
     id="layer2"
     inkscape:label="Meubles"
     sodipodi:insensitive="true">
    <g
       id="g40516"
       transform="matrix(4.369899,0,0,4.369899,-2692.328,-2505.324)">
      <path
         sodipodi:nodetypes="ccccc"
         id="path38670"
         d="M 713.95101,725.09798 C 722.60866,710.17133 742.22363,708.42703 744.65034,686.25168 C 733.29541,698.72062 723.69332,700.65035 716.04899,714.39866 L 715,723 L 713.95101,725.09798 z "
         style="fill:#5ab532;fill-opacity:1;fill-rule:evenodd;stroke:black;stroke-width:1px;stroke-linecap:butt;stroke-linejoin:miter;stroke-opacity:1" />
      <path
         style="fill:#5ab532;fill-opacity:1;fill-rule:evenodd;stroke:black;stroke-width:1px;stroke-linecap:butt;stroke-linejoin:miter;stroke-opacity:1"
         d="M 715.95101,713.09798 C 728.45496,695.79096 743.85901,694.58902 746.65034,667.60807 C 734.24642,683.92331 724.80945,688.39782 717.16512,702.14613 L 716.49493,711.50507 L 715.95101,713.09798 z "
         id="path39557"
         sodipodi:nodetypes="ccccc" />
      <path
         style="fill:#5ab532;fill-opacity:1;fill-rule:evenodd;stroke:black;stroke-width:1px;stroke-linecap:butt;stroke-linejoin:miter;stroke-opacity:1"
         d="M 744.55236,644.90874 C 726.90348,666.8186 724.64433,667.69934 717,681.44765 L 717.34966,691.44765 C 730.21911,672.19374 744.11039,665.1024 744.55236,644.90874 z "
         id="path39561"
         sodipodi:nodetypes="cccc" />
      <path
         sodipodi:nodetypes="cccc"
         id="path39563"
         d="M 743.50337,632.3074 C 730.40012,646.87432 723.945,654.049 715.95101,669.8953 L 716.65033,681.29396 C 728.82045,658.89307 743.76073,654.24938 743.50337,632.3074 z "
         style="fill:#5ab532;fill-opacity:1;fill-rule:evenodd;stroke:black;stroke-width:1px;stroke-linecap:butt;stroke-linejoin:miter;stroke-opacity:1" />
      <path
         style="fill:#5ab532;fill-opacity:1;fill-rule:evenodd;stroke:black;stroke-width:1px;stroke-linecap:butt;stroke-linejoin:miter;stroke-opacity:1"
         d="M 740.95438,621.31075 C 727.85113,635.87767 723.49399,641.30403 715.5,657.15033 L 715.49999,669.59798 C 727.67011,647.19709 741.5614,637.65811 740.95438,621.31075 z "
         id="path39565"
         sodipodi:nodetypes="cccc" />
      <path
         sodipodi:nodetypes="cccc"
         id="path39567"
         d="M 739.94424,609.58356 C 726.84099,624.15048 722.73639,628.81924 714.7424,644.66554 L 715.24746,656.60812 C 730.19546,626.63118 739.03605,629.21388 739.94424,609.58356 z "
         style="fill:#5ab532;fill-opacity:1;fill-rule:evenodd;stroke:black;stroke-width:1px;stroke-linecap:butt;stroke-linejoin:miter;stroke-opacity:1" />
      <path
         style="fill:#5ab532;fill-opacity:1;fill-rule:evenodd;stroke:black;stroke-width:1px;stroke-linecap:butt;stroke-linejoin:miter;stroke-opacity:1"
         d="M 739.43917,597.58356 C 728.10366,613.16062 725.0092,611.26347 714.99493,629.63512 L 714.99493,643.85052 C 729.94293,613.87358 738.53098,617.21388 739.43917,597.58356 z "
         id="path39569"
         sodipodi:nodetypes="cccc" />
      <path
         style="fill:#5ab532;fill-opacity:1;fill-rule:evenodd;stroke:black;stroke-width:1px;stroke-linecap:butt;stroke-linejoin:miter;stroke-opacity:1"
         d="M 712.22719,591.22719 C 703.46667,601.64777 697.75413,613.77056 710.56678,641.34434 C 710.28309,636.88509 711.74453,628.86951 711.14717,625.61441 C 707.72938,606.99039 709.68585,601.80687 712.22719,591.22719 z "
         id="path39577"
         sodipodi:nodetypes="ccsc" />
      <path
         sodipodi:nodetypes="cccc"
         id="path39579"
         d="M 700.10551,609.7931 C 693.87034,621.98142 696.36519,635.11435 710.94558,654.22821 L 710.38957,641.40243 C 702.42615,626.06137 702.61487,614.81701 700.10551,609.7931 z "
         style="fill:#5ab532;fill-opacity:1;fill-rule:evenodd;stroke:black;stroke-width:1px;stroke-linecap:butt;stroke-linejoin:miter;stroke-opacity:1" />
      <path
         style="fill:#5ab532;fill-opacity:1;fill-rule:evenodd;stroke:black;stroke-width:1px;stroke-linecap:butt;stroke-linejoin:miter;stroke-opacity:1"
         d="M 694.29721,625.05577 C 690.83992,638.7593 696.49146,647.59914 710.81932,666.83927 L 710.38957,654.13976 C 700.40587,640.06137 696.80657,630.07968 694.29721,625.05577 z "
         id="path39581"
         sodipodi:nodetypes="cccc" />
      <path
         sodipodi:nodetypes="cccc"
         id="path39583"
         d="M 691.51933,640.31844 C 692.8602,656.79986 699.14307,666.64983 710.94558,684.37475 L 711.02091,667.12962 C 701.03721,653.05123 694.02869,645.34235 691.51933,640.31844 z "
         style="fill:#5ab532;fill-opacity:1;fill-rule:evenodd;stroke:black;stroke-width:1px;stroke-linecap:butt;stroke-linejoin:miter;stroke-opacity:1" />
      <path
         style="fill:#5ab532;fill-opacity:1;fill-rule:evenodd;stroke:black;stroke-width:1px;stroke-linecap:butt;stroke-linejoin:miter;stroke-opacity:1"
         d="M 691.51933,656.5507 C 692.68044,679.58763 705.76684,683.54124 711.32439,702.12222 L 711.52598,685.63469 C 702.0992,670.44247 695.41366,658.80466 691.51933,656.5507 z "
         id="path39585"
         sodipodi:nodetypes="cccc" />
      <path
         sodipodi:nodetypes="cccc"
         id="path39587"
         d="M 692.782,674.31844 C 696.71546,697.90984 706.3586,698.95249 711.70319,717.49088 L 711.90478,701.00335 C 706.77109,690.86183 696.67633,676.5724 692.782,674.31844 z "
         style="fill:#5ab532;fill-opacity:1;fill-rule:evenodd;stroke:black;stroke-width:1px;stroke-linecap:butt;stroke-linejoin:miter;stroke-opacity:1" />
      <path
         style="fill:#5ab532;fill-opacity:1;fill-rule:evenodd;stroke:black;stroke-width:1px;stroke-linecap:butt;stroke-linejoin:miter;stroke-opacity:1"
         d="M 692.782,688.31844 C 693.32265,712.62412 704.44818,707.52299 706.39996,726.06138 L 710.89464,713.61441 C 705.76095,703.47289 696.67633,690.5724 692.782,688.31844 z "
         id="path39589"
         sodipodi:nodetypes="cccc" />
      <path
         sodipodi:nodetypes="cccc"
         id="path37783"
         d="M 704.65034,740.55235 C 727.1114,718.5058 712.5991,689.7845 715,613 C 701.10695,661.89305 726.0876,717.52681 693.25168,739.74832 L 704.65034,740.55235 z "
         style="fill:#5ab532;fill-opacity:1;fill-rule:evenodd;stroke:black;stroke-width:1px;stroke-linecap:butt;stroke-linejoin:miter;stroke-opacity:1" />
      <path
         sodipodi:nodetypes="cccc"
         id="path39559"
         d="M 746.65034,655.60807 C 729.00146,677.51793 724.99399,678.74833 717.34966,692.49664 L 717.34966,702.58406 C 730.47164,682.06747 743.76073,676.85072 746.65034,655.60807 z "
         style="fill:#5ab532;fill-opacity:1;fill-rule:evenodd;stroke:black;stroke-width:1px;stroke-linecap:butt;stroke-linejoin:miter;stroke-opacity:1" />
      <path
         sodipodi:nodetypes="ccsc"
         id="path39575"
         d="M 728.91383,581.31415 C 714.61862,586.42729 704.54755,596.26228 712.04563,626.57098 C 713.01978,622.21019 714.63283,617.17879 715.14293,613.90888 C 718.0374,595.35428 722.5465,590.47929 728.91383,581.31415 z "
         style="fill:#5ab532;fill-opacity:1;fill-rule:evenodd;stroke:black;stroke-width:1px;stroke-linecap:butt;stroke-linejoin:miter;stroke-opacity:1" />
      <path
         style="fill:#5ab532;fill-opacity:1;fill-rule:evenodd;stroke:black;stroke-width:1px;stroke-linecap:butt;stroke-linejoin:miter;stroke-opacity:1"
         d="M 739.69171,576.7888 C 727.13052,589.33852 718.86058,586.06371 715.5,617.5 C 729.42642,589.83021 738.04587,594.08645 739.69171,576.7888 z "
         id="path39573"
         sodipodi:nodetypes="ccc" />
      <path
         sodipodi:nodetypes="cccc"
         id="path39571"
         d="M 739.43917,586.86651 C 728.01202,598.03646 723.49312,601.80562 715.24746,617.6554 L 714.99493,629.85052 C 728.92135,602.18073 735.01545,611.99274 739.43917,586.86651 z "
         style="fill:#5ab532;fill-opacity:1;fill-rule:evenodd;stroke:black;stroke-width:1px;stroke-linecap:butt;stroke-linejoin:miter;stroke-opacity:1" />
    </g>
  </g>
  <g
     inkscape:groupmode="layer"
     id="layer3"
     inkscape:label="Reflet final"
     style="display:inline"
     sodipodi:insensitive="true">
    <path
       style="fill:url(#radialGradient3236);fill-opacity:1"
       d="M 1.5,1.5 L 1.5,460.3679 C 1.5,626.67854 135.81454,761.5 301.49993,761.5 C 467.1854,761.5 601.5,626.67854 601.5,460.3679 L 601.5,1.5 L 1.5,1.5 z "
       id="path2346" />
  </g>
  <g
     inkscape:groupmode="layer"
     id="layer4"
     inkscape:label="Contour final"
     style="display:inline"
     sodipodi:insensitive="true">
    <path
       style="fill:none;fill-opacity:1;stroke:black;stroke-width:3;stroke-miterlimit:4;stroke-dasharray:none;stroke-opacity:1"
       d="M 1.5,1.5 L 1.5,460.36794 C 1.5,626.67854 135.81454,761.5 301.49993,761.5 C 467.1854,761.5 601.5,626.67854 601.5,460.36794 L 601.5,1.5 L 1.5,1.5 z "
       id="path3239" />
  </g>
</svg>

<svg xmlns="http://www.w3.org/2000/svg" xmlns:xlink="http://www.w3.org/1999/xlink" height="763" width="603" version="1.0"><defs><radialGradient xlink:href="#a" id="b" gradientUnits="userSpaceOnUse" gradientTransform="matrix(1.21503 0 0 1.26667 -839.192 -490.49)" cx="858.042" cy="579.933" fx="858.042" fy="579.933" r="300"/><linearGradient id="a"><stop style="stop-color:#fff;stop-opacity:.3137255" offset="0"/><stop offset=".19" style="stop-color:#fff;stop-opacity:.25098041"/><stop style="stop-color:#6b6b6b;stop-opacity:.1254902" offset=".6"/><stop style="stop-color:#000;stop-opacity:.1254902" offset="1"/></linearGradient></defs><path d="M1.5 1.5v458.868c0 166.31 134.315 301.132 300 301.132s300-134.822 300-301.132V1.5H1.5z" style="fill:#fff;fill-opacity:1"/><path style="opacity:1;fill:#000;fill-opacity:1;fill-rule:nonzero;stroke:#000;stroke-width:2.60340929;stroke-miterlimit:4;stroke-dasharray:none;stroke-opacity:1" d="M1.5 1.5v458.875c0 166.31 134.315 301.125 300 301.125h.188V1.5H1.5z"/><path d="M713.951 725.098c8.658-14.927 28.273-16.671 30.7-38.846-11.356 12.469-20.958 14.398-28.602 28.147L715 723l-1.049 2.098z" style="fill:#5ab532;fill-opacity:1;fill-rule:evenodd;stroke:#000;stroke-width:1px;stroke-linecap:butt;stroke-linejoin:miter;stroke-opacity:1" transform="matrix(4.3699 0 0 4.3699 -2692.328 -2505.324)"/><path style="fill:#5ab532;fill-opacity:1;fill-rule:evenodd;stroke:#000;stroke-width:1px;stroke-linecap:butt;stroke-linejoin:miter;stroke-opacity:1" d="M715.951 713.098c12.504-17.307 27.908-18.509 30.7-45.49-12.405 16.315-21.842 20.79-29.486 34.538l-.67 9.36-.544 1.592zM744.552 644.909c-17.649 21.91-19.908 22.79-27.552 36.539l.35 10c12.87-19.254 26.76-26.346 27.202-46.54z" transform="matrix(4.3699 0 0 4.3699 -2692.328 -2505.324)"/><path d="M743.503 632.307c-13.103 14.567-19.558 21.742-27.552 37.588l.7 11.399c12.17-22.4 27.11-27.045 26.852-48.987z" style="fill:#5ab532;fill-opacity:1;fill-rule:evenodd;stroke:#000;stroke-width:1px;stroke-linecap:butt;stroke-linejoin:miter;stroke-opacity:1" transform="matrix(4.3699 0 0 4.3699 -2692.328 -2505.324)"/><path style="fill:#5ab532;fill-opacity:1;fill-rule:evenodd;stroke:#000;stroke-width:1px;stroke-linecap:butt;stroke-linejoin:miter;stroke-opacity:1" d="M740.954 621.31c-13.103 14.568-17.46 19.994-25.454 35.84v12.448c12.17-22.4 26.061-31.94 25.454-48.287z" transform="matrix(4.3699 0 0 4.3699 -2692.328 -2505.324)"/><path d="M739.944 609.584c-13.103 14.566-17.208 19.235-25.202 35.082l.505 11.942c14.948-29.977 23.79-27.394 24.697-47.024z" style="fill:#5ab532;fill-opacity:1;fill-rule:evenodd;stroke:#000;stroke-width:1px;stroke-linecap:butt;stroke-linejoin:miter;stroke-opacity:1" transform="matrix(4.3699 0 0 4.3699 -2692.328 -2505.324)"/><path style="fill:#5ab532;fill-opacity:1;fill-rule:evenodd;stroke:#000;stroke-width:1px;stroke-linecap:butt;stroke-linejoin:miter;stroke-opacity:1" d="M739.44 597.584c-11.336 15.577-14.43 13.68-24.445 32.051v14.216c14.948-29.977 23.536-26.637 24.444-46.267zM712.227 591.227c-8.76 10.42-14.473 22.544-1.66 50.117-.284-4.459 1.178-12.474.58-15.73-3.418-18.624-1.461-23.807 1.08-34.387z" transform="matrix(4.3699 0 0 4.3699 -2692.328 -2505.324)"/><path d="M700.106 609.793c-6.236 12.188-3.74 25.321 10.84 44.435l-.556-12.826c-7.964-15.34-7.775-26.585-10.284-31.609z" style="fill:#5ab532;fill-opacity:1;fill-rule:evenodd;stroke:#000;stroke-width:1px;stroke-linecap:butt;stroke-linejoin:miter;stroke-opacity:1" transform="matrix(4.3699 0 0 4.3699 -2692.328 -2505.324)"/><path style="fill:#5ab532;fill-opacity:1;fill-rule:evenodd;stroke:#000;stroke-width:1px;stroke-linecap:butt;stroke-linejoin:miter;stroke-opacity:1" d="M694.297 625.056c-3.457 13.703 2.194 22.543 16.522 41.783l-.43-12.7c-9.983-14.078-13.582-24.06-16.092-29.083z" transform="matrix(4.3699 0 0 4.3699 -2692.328 -2505.324)"/><path d="M691.52 640.318c1.34 16.482 7.623 26.332 19.426 44.057l.075-17.245c-9.984-14.079-16.992-21.788-19.502-26.812z" style="fill:#5ab532;fill-opacity:1;fill-rule:evenodd;stroke:#000;stroke-width:1px;stroke-linecap:butt;stroke-linejoin:miter;stroke-opacity:1" transform="matrix(4.3699 0 0 4.3699 -2692.328 -2505.324)"/><path style="fill:#5ab532;fill-opacity:1;fill-rule:evenodd;stroke:#000;stroke-width:1px;stroke-linecap:butt;stroke-linejoin:miter;stroke-opacity:1" d="M691.52 656.55c1.16 23.038 14.247 26.991 19.804 45.572l.202-16.487c-9.427-15.193-16.112-26.83-20.007-29.084z" transform="matrix(4.3699 0 0 4.3699 -2692.328 -2505.324)"/><path d="M692.782 674.318c3.933 23.592 13.577 24.634 18.921 43.173l.202-16.488c-5.134-10.141-15.229-24.43-19.123-26.685z" style="fill:#5ab532;fill-opacity:1;fill-rule:evenodd;stroke:#000;stroke-width:1px;stroke-linecap:butt;stroke-linejoin:miter;stroke-opacity:1" transform="matrix(4.3699 0 0 4.3699 -2692.328 -2505.324)"/><path style="fill:#5ab532;fill-opacity:1;fill-rule:evenodd;stroke:#000;stroke-width:1px;stroke-linecap:butt;stroke-linejoin:miter;stroke-opacity:1" d="M692.782 688.318c.54 24.306 11.666 19.205 13.618 37.743l4.495-12.447c-5.134-10.141-14.219-23.042-18.113-25.296z" transform="matrix(4.3699 0 0 4.3699 -2692.328 -2505.324)"/><path d="M704.65 740.552C727.111 718.506 712.6 689.784 715 613c-13.893 48.893 11.088 104.527-21.748 126.748l11.398.804z" style="fill:#5ab532;fill-opacity:1;fill-rule:evenodd;stroke:#000;stroke-width:1px;stroke-linecap:butt;stroke-linejoin:miter;stroke-opacity:1" transform="matrix(4.3699 0 0 4.3699 -2692.328 -2505.324)"/><path d="M746.65 655.608c-17.649 21.91-21.656 23.14-29.3 36.889v10.087c13.122-20.517 26.41-25.733 29.3-46.976zM728.914 581.314c-14.295 5.113-24.366 14.948-16.868 45.257.974-4.36 2.587-9.392 3.097-12.662 2.894-18.555 7.404-23.43 13.77-32.595z" style="fill:#5ab532;fill-opacity:1;fill-rule:evenodd;stroke:#000;stroke-width:1px;stroke-linecap:butt;stroke-linejoin:miter;stroke-opacity:1" transform="matrix(4.3699 0 0 4.3699 -2692.328 -2505.324)"/><path style="fill:#5ab532;fill-opacity:1;fill-rule:evenodd;stroke:#000;stroke-width:1px;stroke-linecap:butt;stroke-linejoin:miter;stroke-opacity:1" d="M739.692 576.789c-12.561 12.55-20.831 9.275-24.192 40.711 13.926-27.67 22.546-23.414 24.192-40.711z" transform="matrix(4.3699 0 0 4.3699 -2692.328 -2505.324)"/><path d="M739.44 586.867c-11.428 11.17-15.947 14.939-24.193 30.788l-.252 12.196c13.926-27.67 20.02-17.858 24.444-42.984z" style="fill:#5ab532;fill-opacity:1;fill-rule:evenodd;stroke:#000;stroke-width:1px;stroke-linecap:butt;stroke-linejoin:miter;stroke-opacity:1" transform="matrix(4.3699 0 0 4.3699 -2692.328 -2505.324)"/><g style="display:inline"><path style="fill:url(#b);fill-opacity:1" d="M1.5 1.5v458.868c0 166.31 134.315 301.132 300 301.132s300-134.821 300-301.132V1.5H1.5z"/></g><g style="display:inline"><path style="fill:none;fill-opacity:1;stroke:#000;stroke-width:3;stroke-miterlimit:4;stroke-dasharray:none;stroke-opacity:1" d="M1.5 1.5v458.868c0 166.31 134.315 301.132 300 301.132s300-134.821 300-301.132V1.5H1.5z"/></g></svg>
